X:1
T:Coleraine, 88.88.88
T:Coleraine, 88.88.88
T:Melody from ‘La Scala Santa,’ 1681
T:Public Domain Courtesy of the Cyber Hymnal™
C:Melody from ‘La Scala Santa,’ 1681
Z:Public Domain
Z:Courtesy of the Cyber Hymnal™
%%score ( 1 2 ) ( 3 4 )
L:1/8
Q:1/4=112
M:4/4
K:G
V:1 treble 
V:2 treble 
V:3 bass 
V:4 bass 
V:1
 [B,G]4 D3 D | [CE]2 [EG]2 [DG]2 [DF]2 | [DG]6 [DB]2 | E3 z E [A,A]2 [DF]2 | [DE]2 [^CE]2 D4 x | %5
 [B,G]4 D3 D | [CE]2 [EG]2 [DG]2 [DF]2 | [DG]6 [DB]2 x | E3 z E [A,A]2 [DF]2 | [DE]2 [^CE]2 D4 x | %10
 [DA]4 [DB]2 [FB]2 | [EG]3 [EG] [CA]2 [=FB]2 | [Ec]6 [Dd]2 | B6 z2 c2 | [DA]2 [DB]2 [EA]2 A2 | %15
 [B,G]8 |] %16
V:2
 x4 D3 D | x8 | x8 | B,2 ^C2 x5 | x4 D4 x | x4 D3 D | x8 | x9 | B,2 ^C2 x5 | x4 D4 x | x8 | x8 | %12
 x8 | G2 F2 E4 x2 | x6 (DC) | x8 |] %16
V:3
 [G,,G,]4 [B,,G,]3 [B,,G,] | [C,G,]2 (CB,) [D,A,]2 [D,A,]2 | [G,B,]6 (G,A,) | %3
 [G,B,]2 [G,A,]2 [F,A,]2 [D,A,]2 x | A,3 z G, [D,F,]4 | [G,,G,]4 [B,,G,]3 [B,,G,] | %6
 [C,G,]2 (CB,) [D,A,]2 [D,A,]2 | [G,B,]6 (G,A,) x | [G,B,]2 [G,A,]2 [F,A,]2 [D,A,]2 x | %9
 A,3 z G, [D,F,]4 | [D,F,]4 [B,,F,]2 [B,,D]2 | [E,B,]2 [E,C]2 [=F,A,]2 [D,F,]2 | [C,G,]6 [B,,G,]2 | %13
 G,6 z2 A,2 | [C,F,]2 [B,,G,]2 [C,G,]2 [D,F,]2 | [G,,G,]8 |] %16
V:4
 x8 | x2 A,,2 x4 | x6 G,,2 | x9 | A,,2 A,,2 x5 | x8 | x2 A,,2 x4 | x6 G,,3 | x9 | A,,2 A,,2 x5 | %10
 x8 | x8 | x8 | E,2 D,2 C,4 x2 | x8 | x8 |] %16

